X: 21847
T: Kirkmichael Ploughs
R: strathspey
M: 4/4
K: Cdorian
|:d|B2F<D B>c d>c|B<G F>D E<C C>A|B2 F<D B>c d>c|B>G F/G/F/E/ D<B, B,:|
g|f>B dc/B/ F>B dc/B/|E>B D>F E<C C>A|f>B dc/B/ F>B dc/B/|E>G C>A B2Bg|
f>B dc/B/ F>B dc/B/|E>B D>F E<C C>f|g<e f<d e<c d<c|B>G F/G/F/E/ D<B, B,||

